X:492
T: MIR IST EIN SCHOENSBRAUN MEIDELEIN
N: E0450
O: Europa, Mitteleuropa, Deutschland
R: Liebes - Lied
M: 4/4
L: 1/8
K: F
F2 | F2F2G2A2 | B3AG2
B2 | A2F2G2G2 | F4z2
F2 | F2F2G2A2 | B3AG2
B2 | A2F2G2G2 | F4z2
F2 | G2A2B2G2 | A2B2c2
c2 | d2c2c2B2 | c4z2
c2 | c2c2A2c2 | B3AG2
B2 | A2F2G2G2 | F6

@@@ Tune index: 4142
